svgs/thin/tombstone-blank.svg

<svg xmlns="http://www.w3.org/2000/svg" viewBox="0 0 448 512"><!--! Font Awesome Pro 6.0.0-alpha3 by @fontawesome - https://fontawesome.com License - https://fontawesome.com/license (Commercial License) --><path d="M40 464c4.406 0 8-3.578 8-8V192c0-97.05 78.97-176 176-176s176 78.95 176 176v264c0 4.422 3.594 8 8 8S416 460.4 416 456l-.0012-264c0-105.9-86.13-191.1-192-191.1S31.1 86.13 31.1 192L32 456C32 460.4 35.59 464 40 464zM440 496H8C3.594 496 0 499.6 0 504S3.594 512 8 512h432c4.406 0 8-3.578 8-8S444.4 496 440 496z"/></svg>

<svg xmlns="http://www.w3.org/2000/svg" viewBox="0 0 448 512"><!-- Font Awesome Pro 6.0.0-alpha2 by @fontawesome - https://fontawesome.com License - https://fontawesome.com/license (Commercial License) --><path d="M40 464C44.406 464 48 460.422 48 456V192C48 94.953 126.969 16 224 16S400 94.953 400 192V456C400 460.422 403.594 464 408 464S416 460.422 416 456V192C416 86.125 329.875 0 224 0S32 86.125 32 192V456C32 460.422 35.594 464 40 464ZM440 496H8C3.594 496 0 499.578 0 504S3.594 512 8 512H440C444.406 512 448 508.422 448 504S444.406 496 440 496Z"/></svg>
